icons/obscuracam.svg

<?xml version="1.0" encoding="utf-8"?>
<!-- Generator: Adobe Illustrator 25.1.0, SVG Export Plug-In . SVG Version: 6.00 Build 0)  -->
<svg version="1.1"
	 id="Layer_1" xmlns:cc="http://creativecommons.org/ns#" xmlns:dc="http://purl.org/dc/elements/1.1/" xmlns:inkscape="http://www.inkscape.org/namespaces/inkscape" xmlns:rdf="http://www.w3.org/1999/02/22-rdf-syntax-ns#" xmlns:sodipodi="http://sodipodi.sourceforge.net/DTD/sodipodi-0.dtd" xmlns:svg="http://www.w3.org/2000/svg"
	 xmlns="http://www.w3.org/2000/svg" xmlns:xlink="http://www.w3.org/1999/xlink" x="0px" y="0px" viewBox="0 0 48 48"
	 style="enable-background:new 0 0 48 48;" xml:space="preserve">
<style type="text/css">
	.st0{fill:none;stroke:#FFFFFC;stroke-linecap:round;stroke-linejoin:round;}
	.st1{fill:none;stroke:#FFFFFC;stroke-miterlimit:10;}
</style>
<sodipodi:namedview  bordercolor="#666666" borderopacity="1" gridtolerance="10" guidetolerance="10" id="namedview10" inkscape:current-layer="svg25" inkscape:cx="26.809889" inkscape:cy="27.687152" inkscape:document-rotation="0" inkscape:pageopacity="0" inkscape:pageshadow="2" inkscape:window-height="742" inkscape:window-maximized="1" inkscape:window-width="1318" inkscape:window-x="0" inkscape:window-y="0" inkscape:zoom="11.916667" objecttolerance="10" pagecolor="#ffffff" showgrid="false">
	</sodipodi:namedview>
<defs>
	
		<inkscape:path-effect  apply_no_weight="true" apply_with_weight="true" effect="bspline" helper_size="0" id="path-effect927" is_visible="true" lpeversion="1" only_selected="false" steps="2" weight="33.333333">
		</inkscape:path-effect>
	
		<inkscape:path-effect  apply_no_weight="true" apply_with_weight="true" effect="bspline" helper_size="0" id="path-effect923" is_visible="true" lpeversion="1" only_selected="false" steps="2" weight="33.333333">
		</inkscape:path-effect>
	
		<inkscape:path-effect  apply_no_weight="true" apply_with_weight="true" effect="bspline" helper_size="0" id="path-effect915" is_visible="true" lpeversion="1" only_selected="false" steps="2" weight="33.333333">
		</inkscape:path-effect>
	
		<inkscape:path-effect  apply_no_weight="true" apply_with_weight="true" effect="bspline" helper_size="0" id="path-effect911" is_visible="true" lpeversion="1" only_selected="false" steps="2" weight="33.333333">
		</inkscape:path-effect>
	
		<inkscape:path-effect  apply_no_weight="true" apply_with_weight="true" effect="bspline" helper_size="0" id="path-effect903" is_visible="true" lpeversion="1" only_selected="false" steps="2" weight="33.333333">
		</inkscape:path-effect>
	
		<inkscape:path-effect  apply_no_weight="true" apply_with_weight="true" effect="bspline" helper_size="0" id="path-effect899" is_visible="true" lpeversion="1" only_selected="false" steps="2" weight="33.333333">
		</inkscape:path-effect>
	
		<inkscape:path-effect  apply_no_weight="true" apply_with_weight="true" effect="bspline" helper_size="0" id="path-effect895" is_visible="true" lpeversion="1" only_selected="false" steps="2" weight="33.333333">
		</inkscape:path-effect>
	
		<inkscape:path-effect  apply_no_weight="true" apply_with_weight="true" effect="bspline" helper_size="0" id="path-effect891" is_visible="true" lpeversion="1" only_selected="false" steps="2" weight="33.333333">
		</inkscape:path-effect>
	
		<inkscape:path-effect  apply_no_weight="true" apply_with_weight="true" effect="bspline" helper_size="0" id="path-effect887" is_visible="true" lpeversion="1" only_selected="false" steps="2" weight="33.333333">
		</inkscape:path-effect>
	
		<inkscape:path-effect  apply_no_weight="true" apply_with_weight="true" effect="bspline" helper_size="0" id="path-effect883" is_visible="true" lpeversion="1" only_selected="false" steps="2" weight="33.333333">
		</inkscape:path-effect>
	
		<inkscape:path-effect  apply_no_weight="true" apply_with_weight="true" effect="bspline" helper_size="0" id="path-effect879" is_visible="true" lpeversion="1" only_selected="false" steps="2" weight="33.333333">
		</inkscape:path-effect>
</defs>
<g>
	<path id="path901" class="st0" d="M18.7,14.9L3.9,16.3 M13.6,23.8L7.7,38.1 M18.7,32.6l13,11.5 M28.8,32.6l16.1-3.4 M33.9,23.8
		L39.4,9 M28.8,14.9L19.6,3 M28.8,32.6H18.7l-5.1-8.8l5.1-8.8h10.1l5.1,8.8L28.8,32.6z M45.5,24c0,11.9-9.6,21.5-21.5,21.5
		S2.5,35.9,2.5,24S12.1,2.5,24,2.5S45.5,12.1,45.5,24z"/>
	<rect id="rect905" x="19.2" y="22.7" class="st0" width="9.5" height="5.6"/>
	
		<path id="path913" inkscape:original-d="m 26.757359,21.441455 v 1.363303" inkscape:path-effect="#path-effect915" class="st0" d="
		M20.8,22.7v-1.3h0c0-1.8,1.4-3.2,3.2-3.2l0,0c1.8,0,3.2,1.4,3.2,3.2l0,0h0v1.3"/>
	<circle class="st1" cx="24" cy="25.1" r="1"/>
	<line class="st0" x1="24" y1="27" x2="24" y2="26.1"/>
</g>
</svg>

<svg xmlns="http://www.w3.org/2000/svg" viewBox="0 0 48 48"><defs><style>.a,.b{fill:none;stroke:#fffffc;}.a{stroke-linecap:round;stroke-linejoin:round;}.b{stroke-miterlimit:10;}</style></defs><path class="a" d="M18.7,14.9,3.9,16.3m9.7,7.5L7.7,38.1m11-5.5,13,11.5M28.8,32.6l16.1-3.4m-11-5.4L39.4,9M28.8,14.9,19.6,3m9.2,29.6H18.7l-5.1-8.8L18.7,15H28.8l5.1,8.8ZM45.5,24A21.5,21.5,0,1,1,24,2.5,21.47,21.47,0,0,1,45.5,24Z"/><rect class="a" x="19.2" y="22.7" width="9.5" height="5.6"/><path class="a" d="M20.8,22.7V21.4h0A3.16,3.16,0,0,1,24,18.2h0a3.16,3.16,0,0,1,3.2,3.2h0v1.3"/><circle class="b" cx="24" cy="25.1" r="1"/><line class="a" x1="24" y1="27" x2="24" y2="26.1"/></svg>
